**kern	**silbe	**harmony	**phrase	**leadinstrument	**rhyme	**timestamp	**harte
*ICvox	*	*M4/4	*	*	*	*	*M4/4
*VRlead	*	*	*	*	*	*	*
*Hstimme	*	*	*	*	*	*	*
*E:	*	*E:	*	*	*	*	*E:
*M4/4	*	*	*	*	*	*	*
*clefF4	*	*	*	*	*	*	*
r;	.	1r;	.	r	.	0	N.C.
=1	=1	=1	=1	=1	=1	=1	=1
*>Letter>A	*>Letter>A	*>Letter>A	*>Letter>A	*>Letter>A	*>Letter>A	*>Letter>A	*>Letter>A
*>Label>Intro	*>Label>Intro	*>Label>Intro	*>Label>Intro	*>Label>Intro	*>Label>Intro	*>Label>Intro	*>Label>Intro
1r	.	1N	newline	r	.	0.139	N.C.
=2	=2	=2	=2	=2	=2	=2	=2
1r	.	1N	.	r	.	1.895	N.C.
=3	=3	=3	=3	=3	=3	=3	=3
1r	.	1EM	newline	r	.	3.651	E:maj
=4	=4	=4	=4	=4	=4	=4	=4
1r	.	1C#m	.	r	.	5.386	C#:min
=5	=5	=5	=5	=5	=5	=5	=5
1r	.	1AM	.	r	.	7.12	A:maj
=6	=6	=6	=6	=6	=6	=6	=6
2.r	.	1BM	.	r	.	8.854	B:maj
4E	Well	.	.	.	.	.	.
=7	=7	=7	=7	=7	=7	=7	=7
*>Letter>B	*>Letter>B	*>Letter>B	*>Letter>B	*>Letter>B	*>Letter>B	*>Letter>B	*>Letter>B
*>Label>Chorus	*>Label>Chorus	*>Label>Chorus	*>Label>Chorus	*>Label>Chorus	*>Label>Chorus	*>Label>Chorus	*>Label>Chorus
4G#	where	1EM	newline	voice	.	10.588	E:maj
4B	oh	.	.	.	.	.	.
4c#	where	.	.	.	.	.	.
8E	can	.	.	.	.	.	.
[8E	my	.	.	.	.	.	.
=8	=8	=8	=8	=8	=8	=8	=8
8E]	_	1C#m	.	voice	.	12.363	C#:min
4G#	ba-	.	.	.	.	.	.
8B	-by	.	.	.	.	.	.
4c#	be	.	.	.	A	.	.
4r	.	.	.	.	.	.	.
=9	=9	=9	=9	=9	=9	=9	=9
8r	.	1AM	.	voice	.	14.138	A:maj
8E	The	.	.	.	.	.	.
4E	Lord	.	.	.	.	.	.
8E	took	.	.	.	.	.	.
4C#	her	.	.	.	.	.	.
8E	a-	.	.	.	.	.	.
=10	=10	=10	=10	=10	=10	=10	=10
4F#	-way	1BM	.	voice	.	15.913	B:maj
8G#	from	.	.	.	.	.	.
4.F#	me	.	.	.	A	.	.
4r	.	.	.	.	.	.	.
=11	=11	=11	=11	=11	=11	=11	=11
8r	.	1EM	newline	voice	.	17.688	E:maj
8E	She's	.	.	.	.	.	.
8G#	gone	.	.	.	.	.	.
8B	to	.	.	.	.	.	.
8c#	hea-	.	.	.	.	.	.
8c#	-ven	.	.	.	.	.	.
8E	So	.	.	.	.	.	.
8E	I	.	.	.	.	.	.
=12	=12	=12	=12	=12	=12	=12	=12
8G#	got	1C#m	.	voice	.	19.473	C#:min
8G#	to	.	.	.	.	.	.
8B	be	.	.	.	.	.	.
4c#	good	.	.	.	B	.	.
4r	.	.	.	.	.	.	.
8G#	So	.	.	.	.	.	.
=13	=13	=13	=13	=13	=13	=13	=13
8F#	I	1AM	.	voice	.	21.257	A:maj
8E	can	.	.	.	.	.	.
8E	see	.	.	.	.	.	.
8E	my	.	.	.	.	.	.
8E	ba-	.	.	.	.	.	.
8E	-by	.	.	.	.	.	.
8E	when	.	.	.	.	.	.
8E	I	.	.	.	.	.	.
=14	=14	=14	=14	=14	=14	=14	=14
8G#	leave	1BM	.	voice	.	23.042	B:maj
2F#	_	.	.	.	.	.	.
8E	uh	.	.	.	.	.	.
4E	this	.	.	.	.	.	.
=15	=15	=15	=15	=15	=15	=15	=15
*>Letter>A2	*>Letter>A2	*>Letter>A2	*>Letter>A2	*>Letter>A2	*>Letter>A2	*>Letter>A2	*>Letter>A2
*>Label>Trans	*>Label>Trans	*>Label>Trans	*>Label>Trans	*>Label>Trans	*>Label>Trans	*>Label>Trans	*>Label>Trans
2.E	world	1EM	newline	voice	B	24.827	E:maj
4r	.	.	.	.	.	.	.
=16	=16	=16	=16	=16	=16	=16	=16
2.r	.	1EM	.	voice	.	26.582	E:maj
8E	We	.	.	.	.	.	.
8E	were	.	.	.	.	.	.
=17	=17	=17	=17	=17	=17	=17	=17
*>Letter>C	*>Letter>C	*>Letter>C	*>Letter>C	*>Letter>C	*>Letter>C	*>Letter>C	*>Letter>C
*>Label>Verse	*>Label>Verse	*>Label>Verse	*>Label>Verse	*>Label>Verse	*>Label>Verse	*>Label>Verse	*>Label>Verse
4G#	out	1EM	newline	voice	.	28.338	E:maj
8B	on	.	.	.	.	.	.
8B	a	.	.	.	.	.	.
4c#	date	.	.	.	.	.	.
8E	in	.	.	.	.	.	.
[8E	my	.	.	.	.	.	.
=18	=18	=18	=18	=18	=18	=18	=18
8E]	_	1C#m	.	voice	.	30.095	C#:min
4G#	Da-	.	.	.	.	.	.
8B	-ddy's	.	.	.	.	.	.
4c#	car	.	.	.	C	.	.
4r	.	.	.	.	.	.	.
=19	=19	=19	=19	=19	=19	=19	=19
8r	.	1AM	.	voice	.	31.852	A:maj
8E	We	.	.	.	.	.	.
8E	ha-	.	.	.	.	.	.
8E	-dn't	.	.	.	.	.	.
8E	dri-	.	.	.	.	.	.
4.E	-ven	.	.	.	.	.	.
=20	=20	=20	=20	=20	=20	=20	=20
4F#	ve-	1BM	.	voice	.	33.609	B:maj
8G#	-ry	.	.	.	.	.	.
4.F#	far	.	.	.	C	.	.
4r	.	.	.	.	.	.	.
=21	=21	=21	=21	=21	=21	=21	=21
8G#	There	1EM	newline	voice	.	35.367	E:maj
8B	in	.	.	.	.	.	.
8B	the	.	.	.	.	.	.
4.c#	road	.	.	.	.	.	.
4r	.	.	.	.	.	.	.
=22	=22	=22	=22	=22	=22	=22	=22
4G#	straight	1C#m	.	voice	.	37.161	C#:min
8B	a-	.	.	.	.	.	.
4.c#	-head	.	.	.	D	.	.
4r	.	.	.	.	.	.	.
=23	=23	=23	=23	=23	=23	=23	=23
8r	.	1AM	.	voice	.	38.955	A:maj
8E	The	.	.	.	.	.	.
8E	car	.	.	.	.	.	.
8E	was	.	.	.	.	.	.
4.E	stalled	.	.	.	.	.	.
8E	the	.	.	.	.	.	.
=24	=24	=24	=24	=24	=24	=24	=24
8F#	en-	1BM	.	voice	.	40.75	B:maj
8F#	-gine	.	.	.	.	.	.
8G#	was	.	.	.	.	.	.
4.F#	dead	.	.	.	D	.	.
4r	.	.	.	.	.	.	.
=25	=25	=25	=25	=25	=25	=25	=25
8G#	I	1EM	newline	voice	.	42.544	E:maj
8B	coul-	.	.	.	.	.	.
8B	-dn't	.	.	.	.	.	.
4c#	stop	.	.	.	.	.	.
8r	.	.	.	.	.	.	.
8E	so	.	.	.	.	.	.
8E	I	.	.	.	.	.	.
=26	=26	=26	=26	=26	=26	=26	=26
8G#	swerved	1C#m	.	voice	.	44.314	C#:min
8B	to	.	.	.	.	.	.
8B	the	.	.	.	.	.	.
4c#	right	.	.	.	E	.	.
4.r	.	.	.	.	.	.	.
=27	=27	=27	=27	=27	=27	=27	=27
8E	Ne-	1AM	.	voice	.	46.084	A:maj
8E	-ver	.	.	.	.	.	.
8E	for-	.	.	.	.	.	.
4E	-get	.	.	.	.	.	.
4r	.	.	.	.	.	.	.
8E	the	.	.	.	.	.	.
=28	=28	=28	=28	=28	=28	=28	=28
4F#	sound	1BM	.	voice	.	47.855	B:maj
8G#	that	.	.	.	.	.	.
4.F#	night	.	.	.	E	.	.
8r	.	.	.	.	.	.	.
8E	The	.	.	.	.	.	.
=29	=29	=29	=29	=29	=29	=29	=29
4G#	cry-	1EM	newline	voice	.	49.625	E:maj
8B	-in'	.	.	.	.	.	.
2c#	tires	.	.	.	.	.	.
8E	the	.	.	.	.	.	.
=30	=30	=30	=30	=30	=30	=30	=30
8G#	bus-	1C#m	.	voice	.	51.411	C#:min
4B	-tin'	.	.	.	.	.	.
4.c#	glass	.	.	.	F	.	.
8r	.	.	.	.	.	.	.
8E	The	.	.	.	.	.	.
=31	=31	=31	=31	=31	=31	=31	=31
4E	pain-	1AM	.	voice	.	53.196	A:maj
8E	-ful	.	.	.	.	.	.
2E	scream	.	.	.	.	.	.
8E	that	.	.	.	.	.	.
=32	=32	=32	=32	=32	=32	=32	=32
2.F#	I	1BM	.	voice	.	54.982	B:maj
4D#	heard	.	.	.	.	.	.
=33	=33	=33	=33	=33	=33	=33	=33
*>Letter>A2	*>Letter>A2	*>Letter>A2	*>Letter>A2	*>Letter>A2	*>Letter>A2	*>Letter>A2	*>Letter>A2
*>Label>Trans	*>Label>Trans	*>Label>Trans	*>Label>Trans	*>Label>Trans	*>Label>Trans	*>Label>Trans	*>Label>Trans
2.E	last	1EM	newline	voice	F	56.768	E:maj
4r	.	.	.	.	.	.	.
=34	=34	=34	=34	=34	=34	=34	=34
2.r	.	1EM	.	voice	.	58.526	E:maj
4E	Well	.	.	.	.	.	.
=35	=35	=35	=35	=35	=35	=35	=35
*>Letter>B	*>Letter>B	*>Letter>B	*>Letter>B	*>Letter>B	*>Letter>B	*>Letter>B	*>Letter>B
*>Label>Chorus	*>Label>Chorus	*>Label>Chorus	*>Label>Chorus	*>Label>Chorus	*>Label>Chorus	*>Label>Chorus	*>Label>Chorus
4G#	where	1EM	newline	voice	.	60.284	E:maj
4B	oh	.	.	.	.	.	.
4B	where	.	.	.	.	.	.
8B	can	.	.	.	.	.	.
[8B	my	.	.	.	.	.	.
=36	=36	=36	=36	=36	=36	=36	=36
8B]	_	1C#m	.	voice	.	62.028	C#:min
4e	ba-	.	.	.	.	.	.
8d#	-by	.	.	.	.	.	.
4.c#	be	.	.	.	A	.	.
8r	.	.	.	.	.	.	.
=37	=37	=37	=37	=37	=37	=37	=37
8r	.	1AM	.	voice	.	63.771	A:maj
8e	The	.	.	.	.	.	.
4e	Lord	.	.	.	.	.	.
8e	took	.	.	.	.	.	.
4e	her	.	.	.	.	.	.
8c#	a-	.	.	.	.	.	.
=38	=38	=38	=38	=38	=38	=38	=38
4d#	-way	1BM	.	voice	.	65.514	B:maj
8c#	from	.	.	.	.	.	.
4.B	me	.	.	.	A	.	.
4r	.	.	.	.	.	.	.
=39	=39	=39	=39	=39	=39	=39	=39
8r	.	1EM	newline	voice	.	67.257	E:maj
8e	She's	.	.	.	.	.	.
8e	gone	.	.	.	.	.	.
8c#	to	.	.	.	.	.	.
8e	hea-	.	.	.	.	.	.
8c#	-ven	.	.	.	.	.	.
8e	so	.	.	.	.	.	.
8c#	I	.	.	.	.	.	.
=40	=40	=40	=40	=40	=40	=40	=40
8e	got	1C#m	.	voice	.	69.049	C#:min
8e	to	.	.	.	.	.	.
8e	be	.	.	.	.	.	.
4.c#	good	.	.	.	B	.	.
8r	.	.	.	.	.	.	.
8G#	So	.	.	.	.	.	.
=41	=41	=41	=41	=41	=41	=41	=41
8F#	I	1AM	.	voice	.	70.841	A:maj
8E	can	.	.	.	.	.	.
8E	see	.	.	.	.	.	.
8E	my	.	.	.	.	.	.
8E	ba-	.	.	.	.	.	.
8E	-by	.	.	.	.	.	.
8E	when	.	.	.	.	.	.
8E	I	.	.	.	.	.	.
=42	=42	=42	=42	=42	=42	=42	=42
4G#	leave	1BM	.	voice	.	72.633	B:maj
4.F#	_	.	.	.	.	.	.
8E	uh	.	.	.	.	.	.
4E	this	.	.	.	.	.	.
=43	=43	=43	=43	=43	=43	=43	=43
*>Letter>A2	*>Letter>A2	*>Letter>A2	*>Letter>A2	*>Letter>A2	*>Letter>A2	*>Letter>A2	*>Letter>A2
*>Label>Trans	*>Label>Trans	*>Label>Trans	*>Label>Trans	*>Label>Trans	*>Label>Trans	*>Label>Trans	*>Label>Trans
2.E	world	1EM	newline	voice	B	74.424	E:maj
4r	.	.	.	.	.	.	.
=44	=44	=44	=44	=44	=44	=44	=44
2.r	.	1EM	.	voice	.	76.173	E:maj
8E	Well	.	.	.	.	.	.
8E	when	.	.	.	.	.	.
=45	=45	=45	=45	=45	=45	=45	=45
*>Letter>C	*>Letter>C	*>Letter>C	*>Letter>C	*>Letter>C	*>Letter>C	*>Letter>C	*>Letter>C
*>Label>Verse	*>Label>Verse	*>Label>Verse	*>Label>Verse	*>Label>Verse	*>Label>Verse	*>Label>Verse	*>Label>Verse
4G#	I	1EM	newline	voice	.	77.921	E:maj
8B	woke	.	.	.	.	.	.
8c#	up	.	.	.	.	.	.
8r	.	.	.	.	.	.	.
8E	The	.	.	.	.	.	.
8E	rain	.	.	.	.	.	.
8E	was	.	.	.	.	.	.
=46	=46	=46	=46	=46	=46	=46	=46
4G#	pour-	1C#m	.	voice	.	79.705	C#:min
8B	-in'	.	.	.	.	.	.
4.c#	down	.	.	.	G	.	.
4r	.	.	.	.	.	.	.
=47	=47	=47	=47	=47	=47	=47	=47
4E	There	1AM	.	voice	.	81.489	A:maj
8E	were	.	.	.	.	.	.
4E	pe-	.	.	.	.	.	.
8E	-ople	.	.	.	.	.	.
8E	stand-	.	.	.	.	.	.
8E	-ing	.	.	.	.	.	.
=48	=48	=48	=48	=48	=48	=48	=48
4F#	all	1BM	.	voice	.	83.274	B:maj
8G#	a-	.	.	.	.	.	.
4.F#	-round	.	.	.	G	.	.
4r	.	.	.	.	.	.	.
=49	=49	=49	=49	=49	=49	=49	=49
4G#	Some-	1EM	newline	voice	.	85.058	E:maj
8B	-thing	.	.	.	.	.	.
4c#	warm	.	.	.	.	.	.
8E	uh	.	.	.	.	.	.
8E	run-	.	.	.	.	.	.
8E	-ning	.	.	.	.	.	.
=50	=50	=50	=50	=50	=50	=50	=50
4G#	in	1C#m	.	voice	.	86.843	C#:min
8B	my	.	.	.	.	.	.
4.c#	eyes	.	.	.	E	.	.
4r	.	.	.	.	.	.	.
=51	=51	=51	=51	=51	=51	=51	=51
4E	But	1AM	.	voice	.	88.627	A:maj
8E	I	.	.	.	.	.	.
4E	found	.	.	.	.	.	.
8E	my	.	.	.	.	.	.
8E	ba-	.	.	.	.	.	.
8E	-by	.	.	.	.	.	.
=52	=52	=52	=52	=52	=52	=52	=52
8F#	some-	1BM	.	voice	.	90.412	B:maj
4F#	-how	.	.	.	.	.	.
8G#	that	.	.	.	.	.	.
4F#	night	.	.	.	E	.	.
8r	.	.	.	.	.	.	.
8E	I	.	.	.	.	.	.
=53	=53	=53	=53	=53	=53	=53	=53
4G#	raised	1EM	newline	voice	.	92.197	E:maj
8B	her	.	.	.	.	.	.
4c#	head	.	.	.	H	.	.
8E	and	.	.	.	.	.	.
8E	when	.	.	.	.	.	.
8E	she	.	.	.	.	.	.
=54	=54	=54	=54	=54	=54	=54	=54
4G#	smiled	1C#m	.	voice	.	93.985	C#:min
8B	and	.	.	.	.	.	.
4c#	said	.	.	.	H	.	.
8r	.	.	.	.	.	.	.
4r	.	.	.	.	.	.	.
=55	=55	=55	=55	=55	=55	=55	=55
4e	Hold	1AM	.	voice	.	95.773	A:maj
8e	me	.	.	.	.	.	.
4e	dar-	.	.	.	.	.	.
8e	-ling	.	.	.	.	.	.
8e	for	.	.	.	.	.	.
8c#	a	.	.	.	.	.	.
=56	=56	=56	=56	=56	=56	=56	=56
4d#	li-	1BM	.	voice	.	97.561	B:maj
8c#	-ttle	.	.	.	.	.	.
4.B	while	.	.	.	E	.	.
8r	.	.	.	.	.	.	.
8E	I	.	.	.	.	.	.
=57	=57	=57	=57	=57	=57	=57	=57
4G#	held	1EM	newline	voice	.	99.349	E:maj
8B	her	.	.	.	.	.	.
4c#	close	.	.	.	.	.	.
8E	I	.	.	.	.	.	.
8E	kissed	.	.	.	.	.	.
8E	her	.	.	.	.	.	.
=58	=58	=58	=58	=58	=58	=58	=58
8G#	our	1C#m	.	voice	.	101.126	C#:min
4B	last	.	.	.	.	.	.
4c#	kiss	.	.	.	I	.	.
4r	.	.	.	.	.	.	.
8E	I	.	.	.	.	.	.
=59	=59	=59	=59	=59	=59	=59	=59
4E	found	1AM	.	voice	.	102.902	A:maj
8E	the	.	.	.	.	.	.
4.E	love	.	.	.	.	.	.
8E	that	.	.	.	.	.	.
8E	I	.	.	.	.	.	.
=60	=60	=60	=60	=60	=60	=60	=60
8F#	knew	1BM	.	voice	.	104.679	B:maj
8F#	I	.	.	.	.	.	.
8G#	would	.	.	.	.	.	.
4.F#	miss	.	.	.	I	.	.
8r	.	.	.	.	.	.	.
8E	But	.	.	.	.	.	.
=61	=61	=61	=61	=61	=61	=61	=61
4G#	now	1EM	newline	voice	.	106.455	E:maj
8B	she's	.	.	.	.	.	.
4.c#	gone	.	.	.	.	.	.
8E	e-	.	.	.	.	.	.
8E	-ven	.	.	.	.	.	.
=62	=62	=62	=62	=62	=62	=62	=62
8G#	though	1C#m	.	voice	.	108.252	C#:min
8G#	I	.	.	.	.	.	.
8B	hold	.	.	.	.	.	.
8B	her	.	.	.	.	.	.
4c#	tight	.	.	.	E	.	.
8r	.	.	.	.	.	.	.
8G#	I	.	.	.	.	.	.
=63	=63	=63	=63	=63	=63	=63	=63
4F#	lost	1AM	.	voice	.	110.048	A:maj
8E	my	.	.	.	.	.	.
4.E	love	.	.	.	.	.	.
4G#	my	.	.	.	.	.	.
=64	=64	=64	=64	=64	=64	=64	=64
4.F#	life	1BM	.	voice	E	111.845	B:maj
8r	.	.	.	.	.	.	.
4r	.	.	.	.	.	.	.
4D#	that	.	.	.	.	.	.
=65	=65	=65	=65	=65	=65	=65	=65
*>Letter>A2	*>Letter>A2	*>Letter>A2	*>Letter>A2	*>Letter>A2	*>Letter>A2	*>Letter>A2	*>Letter>A2
*>Label>Trans	*>Label>Trans	*>Label>Trans	*>Label>Trans	*>Label>Trans	*>Label>Trans	*>Label>Trans	*>Label>Trans
4E	night	1EM	newline	voice	E	113.641	E:maj
4r	.	.	.	.	.	.	.
2r	.	.	.	.	.	.	.
=66	=66	=66	=66	=66	=66	=66	=66
2.r	.	1EM	.	voice	.	115.38	E:maj
4E	Well	.	.	.	.	.	.
=67	=67	=67	=67	=67	=67	=67	=67
*>Letter>B	*>Letter>B	*>Letter>B	*>Letter>B	*>Letter>B	*>Letter>B	*>Letter>B	*>Letter>B
*>Label>Chorus	*>Label>Chorus	*>Label>Chorus	*>Label>Chorus	*>Label>Chorus	*>Label>Chorus	*>Label>Chorus	*>Label>Chorus
4G#	where	1EM	newline	voice	.	117.119	E:maj
4B	oh	.	.	.	.	.	.
4B	where	.	.	.	.	.	.
8B	can	.	.	.	.	.	.
[8B	my	.	.	.	.	.	.
=68	=68	=68	=68	=68	=68	=68	=68
8B]	_	1C#m	.	voice	.	118.885	C#:min
4e	ba-	.	.	.	.	.	.
8d#	-by	.	.	.	.	.	.
4c#	be	.	.	.	A	.	.
4r	.	.	.	.	.	.	.
=69	=69	=69	=69	=69	=69	=69	=69
8r	.	1AM	.	voice	.	120.651	A:maj
8e	The	.	.	.	.	.	.
4e	Lord	.	.	.	.	.	.
8e	took	.	.	.	.	.	.
4e	her	.	.	.	.	.	.
8c#	a-	.	.	.	.	.	.
=70	=70	=70	=70	=70	=70	=70	=70
4d#	-way	1BM	.	voice	.	122.418	B:maj
8c#	from	.	.	.	.	.	.
4.B	me	.	.	.	A	.	.
4r	.	.	.	.	.	.	.
=71	=71	=71	=71	=71	=71	=71	=71
8r	.	1EM	newline	voice	.	124.184	E:maj
8e	She's	.	.	.	.	.	.
8e	gone	.	.	.	.	.	.
8c#	to	.	.	.	.	.	.
8e	hea-	.	.	.	.	.	.
8c#	-ven	.	.	.	.	.	.
8e	so	.	.	.	.	.	.
8c#	I	.	.	.	.	.	.
=72	=72	=72	=72	=72	=72	=72	=72
8e	got	1C#m	.	voice	.	125.976	C#:min
8e	to	.	.	.	.	.	.
8e	be	.	.	.	.	.	.
4c#	good	.	.	.	B	.	.
4r	.	.	.	.	.	.	.
8G#	So	.	.	.	.	.	.
=73	=73	=73	=73	=73	=73	=73	=73
8F#	I	1AM	.	voice	.	127.769	A:maj
8E	can	.	.	.	.	.	.
8E	see	.	.	.	.	.	.
8E	my	.	.	.	.	.	.
8E	ba-	.	.	.	.	.	.
8E	-by	.	.	.	.	.	.
8E	when	.	.	.	.	.	.
8E	I	.	.	.	.	.	.
=74	=74	=74	=74	=74	=74	=74	=74
8G#	leave	1BM	.	voice	.	129.561	B:maj
2F#	_	.	.	.	.	.	.
8E	uh	.	.	.	.	.	.
4E	this	.	.	.	.	.	.
=75	=75	=75	=75	=75	=75	=75	=75
*>Letter>A2	*>Letter>A2	*>Letter>A2	*>Letter>A2	*>Letter>A2	*>Letter>A2	*>Letter>A2	*>Letter>A2
*>Label>Trans	*>Label>Trans	*>Label>Trans	*>Label>Trans	*>Label>Trans	*>Label>Trans	*>Label>Trans	*>Label>Trans
2.E	world	1EM	newline	voice	B	131.353	E:maj
4r	.	.	.	.	.	.	.
=76	=76	=76	=76	=76	=76	=76	=76
1r	.	1EM	.	voice	.	133.042	E:maj
=77	=77	=77	=77	=77	=77	=77	=77
*>Letter>C2	*>Letter>C2	*>Letter>C2	*>Letter>C2	*>Letter>C2	*>Letter>C2	*>Letter>C2	*>Letter>C2
*>Label>Outro	*>Label>Outro	*>Label>Outro	*>Label>Outro	*>Label>Outro	*>Label>Outro	*>Label>Outro	*>Label>Outro
[2e	Hmm	1EM	newline	voice	.	134.731	E:maj
8e]	_	.	.	.	.	.	.
8e	_	.	.	.	.	.	.
8f#	_	.	.	.	.	.	.
8e	_	.	.	.	.	.	.
=78	=78	=78	=78	=78	=78	=78	=78
[2d#	_	1C#m	.	voice	.	136.506	C#:min
8d#]	_	.	.	.	.	.	.
8r	.	.	.	.	.	.	.
4r	.	.	.	.	.	.	.
=79	=79	=79	=79	=79	=79	=79	=79
1e	Hmm	1AM	.	voice	.	138.281	A:maj
=80	=80	=80	=80	=80	=80	=80	=80
4d#	_	1BM	.	voice	.	140.056	B:maj
8c#	_	.	.	.	.	.	.
4.B	_	.	.	.	.	.	.
4c#	_	.	.	.	.	.	.
=81	=81	=81	=81	=81	=81	=81	=81
*>Label>>Fadeout	*>Label>>Fadeout	*>Label>>Fadeout	*>Label>>Fadeout	*>Label>>Fadeout	*>Label>>Fadeout	*>Label>>Fadeout	*>Label>>Fadeout
[2e	Hmm	1EM	newline	voice	.	141.831	E:maj
8e]	_	.	.	.	.	.	.
8e	_	.	.	.	.	.	.
8f#	_	.	.	.	.	.	.
8e	_	.	.	.	.	.	.
=82	=82	=82	=82	=82	=82	=82	=82
[2d#	_	1C#m	.	voice	.	142.515	C#:min
8d#]	_	.	.	.	.	.	.
8r	.	.	.	.	.	.	.
4r	.	.	.	.	.	.	.
=83	=83	=83	=83	=83	=83	=83	=83
1r	.	1AM	.	voice	.	143.199	A:maj
=84	=84	=84	=84	=84	=84	=84	=84
1r	.	1BM	.	voice	.	143.883	B:maj
r;	.	1r;	.	r	.	144.567	N.C.
r;	.	1r;	.	r	.	147.696	N.C.
*-	*-	*-	*-	*-	*-	*-	*-
!!!BillboardChartDate: 1964/09/05, 1974/01/05, 1964/10/17
!!!BillboardPeak: 2, 2, 2
!!!BillboardWeeksOnChart: 20, 20, 20
!!!COC: J. Frank Wilson & The Cavaliers
!!!ENC: Nathaniel Condit-Schultz
!!!EST: Awating manual error checking and editing.
!!!OTL: Last Kiss
!!!RDF**chordsym: original McGill chord annotation + (implied pitch class set, with bass pitch in first position)
!!!RDF**harmony: **recip + pitch class of root + harmonic quality
!!!RDF**leadinstrument: original McGill primary instrumentation annotation
!!!RDF**phrase: newline = linebreak in original McGill transcription
!!!RDF**timestamp: McGill audio timestamp in seconds
!!!RDT: 2017/01/12/
!!!SampleActualRank: 73, 93,  5
!!!SampleID#: 54, 247, 402
!!!SampleTargetRank: 71, 94,  4
